X:2631
L:1/8
Q:1/4=120
M:2/2
K:D
"^Quick" (3(A,B,C | D2) DF EDFE | DFAd BcdB | AFDF EDFE | D2 [B,D]2 [B,D]2 (A,2 | [DD]2) DF EDFE | 
 DFAd BcdB | AFDF EDED | F2 D2 [A,D]2 :: (3(A/B/c/ | d2) fd edBA | dAFD EF (3([DA]Bc | 
 d2) fd edBA | !slide![ee]2 [ee]2 [ee]2 Ac | d2 fd edBc | dAFD EFDE | F2 [FA]F [EA]D[EA]D | 
 F2 D2 [A,D]2 :|

